packages/icons/src/location-up.svg

<svg width="24" height="24" viewBox="0 0 24 24" fill="none" xmlns="http://www.w3.org/2000/svg">
<path d="M11.9906 17.7733L5.07274 20.9155C4.90802 21 4.75282 21.0211 4.60711 20.9789C4.4614 20.9366 4.33787 20.8658 4.23651 20.7664C4.13515 20.6669 4.06335 20.5426 4.02112 20.3934C3.97888 20.2443 4 20.0889 4.08447 19.9273L11.3064 3.45612C11.368 3.30408 11.4635 3.19005 11.5928 3.11403C11.7222 3.03801 11.8546 3 11.9901 3C12.1256 3 12.2582 3.03801 12.3878 3.11403C12.5174 3.19005 12.6131 3.30408 12.6748 3.45612L19.8968 19.9273C19.9812 20.0889 20.0023 20.2443 19.9601 20.3934C19.9179 20.5426 19.8461 20.6669 19.7447 20.7664C19.6434 20.8658 19.5198 20.9366 19.3741 20.9789C19.2284 21.0211 19.0732 21 18.9085 20.9155L11.9906 17.7733Z" fill="black"/>
</svg>

<svg xmlns="http://www.w3.org/2000/svg" width="24" height="24" fill="none" viewBox="0 0 24 24">
  <path fill="#000" d="m11.99 17.773-6.917 3.143a.62.62 0 0 1-.466.063.827.827 0 0 1-.586-.585.617.617 0 0 1 .063-.467l7.222-16.47a.677.677 0 0 1 .287-.343A.775.775 0 0 1 11.99 3c.136 0 .268.038.398.114.13.076.225.19.287.342l7.222 16.471a.618.618 0 0 1 .063.466.826.826 0 0 1-.586.586.62.62 0 0 1-.465-.063l-6.918-3.143Z"/>
</svg>
